icons/chart_pie_fill.svg

<svg width="48" height="48" viewBox="0 0 48 48" fill="none" xmlns="http://www.w3.org/2000/svg">
<path fill-rule="evenodd" clip-rule="evenodd" d="M9.71207 10.0052C6.17855 13.6122 4 18.5517 4 24C4 35.0457 12.9543 44 24 44C35.0457 44 44 35.0457 44 24C44 12.9543 35.0457 4 24 4C18.5419 4 13.5944 6.18642 9.98567 9.73119C9.89359 9.82164 9.80239 9.91297 9.71207 10.0052ZM25 6.02731L25 22.2679L39.0661 14.1468C36.0221 9.50175 30.8879 6.34971 25 6.02731ZM24.5087 24.8609L24.5 24.866L8.93381 33.8531C12.149 38.7594 17.696 42 24 42C33.9411 42 42 33.9411 42 24C42 21.0777 41.3036 18.318 40.0677 15.8779L24.5087 24.8609Z" fill="black"/>
</svg>

<svg
  xmlns="http://www.w3.org/2000/svg"
  width="24"
  height="24"
  viewBox="0 0 24 24"
  fill="none"
  stroke="currentColor"
  stroke-width="2"
  stroke-linecap="round"
  stroke-linejoin="round"
>
  <path
    fill-rule="evenodd"
    d="M9.712 10.005A19.93 19.93 0 0 0 4 24c0 11.046 8.954 20 20 20s20-8.954 20-20S35.046 4 24 4a19.93 19.93 0 0 0-14.288 6.005M25 6.027v16.24l14.066-8.12C36.022 9.502 30.888 6.35 25 6.027m-.491 18.834-.009.005-15.566 8.987C12.149 38.76 17.696 42 24 42c9.941 0 18-8.059 18-18 0-2.922-.696-5.682-1.932-8.122z"
    clip-rule="evenodd"
  />
</svg>
